vector-polyline-edit.svg

<svg fill="currentColor" viewBox="0 0 24 24"><path d="M2 3v6h2.95l2 6H6v6h6v-4.59L17.41 11H22V5h-6v4.57L10.59 15H9.06l-2-6H8V3zm2 2h2v2H4zm14 2h2v2h-2zm3.15 6c-.15 0-.28.05-.39.16l-1.01 1.02 2.07 2.07 1.02-1.01c.21-.21.21-.57 0-.78l-1.3-1.3a.54.54 0 0 0-.39-.16m-2 1.76L13 20.91V23h2.09l6.14-6.16zM8 17h2v2H8z"/></svg>

<svg  viewBox="0 0 24 24" fill="currentColor"><path  d="M2 3V9H4.95L6.95 15H6V21H12V16.41L17.41 11H22V5H16V9.57L10.59 15H9.06L7.06 9H8V3H2M4 5H6V7H4V5M18 7H20V9H18V7M21.15 13C21 13 20.87 13.05 20.76 13.16L19.75 14.18L21.82 16.25L22.84 15.24C23.05 15.03 23.05 14.67 22.84 14.46L21.54 13.16C21.43 13.05 21.29 13 21.15 13M19.15 14.76L13 20.91V23H15.09L21.23 16.84L19.15 14.76M8 17H10V19H8V17Z"/></svg>
